images/number-email.svg

<?xml version="1.0" encoding="UTF-8" standalone="no"?>
<svg width="17px" height="17px" viewBox="0 0 17 17" version="1.1" xmlns="http://www.w3.org/2000/svg" xmlns:xlink="http://www.w3.org/1999/xlink">
    <!-- Generator: Sketch 48 (47235) - http://www.bohemiancoding.com/sketch -->
    <title>number-email</title>
    <desc>Created with Sketch.</desc>
    <defs></defs>
    <g id="number_verification" stroke="none" stroke-width="1" fill="none" fill-rule="evenodd" transform="translate(-59.000000, -438.000000)">
        <g id="Group-5" transform="translate(59.000000, 401.000000)">
            <g id="Group-4" transform="translate(0.000000, 37.000000)">
                <g id="number-email">
                    <circle id="Oval-3-Copy" fill="#EFEFEF" cx="8.5" cy="8.5" r="8.5"></circle>
                    <path d="M13.0000107,7.28013665 L13.0000107,11.2678646 C13.0000107,11.7098294 12.6384032,12.071437 12.1964383,12.071437 L4.80357239,12.071437 C4.36160757,12.071437 4,11.7098294 4,11.2678646 L4,7.28013665 C4.15066982,7.44587345 4.32142895,7.59152095 4.50725507,7.71707913 C5.34096142,8.28460213 6.18471243,8.85212513 7.00335179,9.44978209 C7.4252273,9.76116639 7.94754935,10.1428633 8.49498304,10.1428633 L8.50502769,10.1428633 C9.05246138,10.1428633 9.57478343,9.76116639 9.99665893,9.44978209 C10.8152983,8.85714746 11.6590493,8.28460213 12.497778,7.71707913 C12.6785818,7.59152095 12.8493409,7.44587345 13.0000107,7.28013665 Z M13.0000107,5.80357239 C13.0000107,6.36607306 12.5831576,6.87332813 12.1411927,7.1796901 C11.3577097,7.72210146 10.5692043,8.26451282 9.79074351,8.81194651 C9.46429223,9.03795124 8.91183621,9.50000536 8.50502769,9.50000536 L8.49498304,9.50000536 C8.08817452,9.50000536 7.5357185,9.03795124 7.20926722,8.81194651 C6.43080647,8.26451282 5.64230106,7.72210146 4.86384032,7.1796901 C4.50725507,6.93861838 4,6.37109538 4,5.91406359 C4,5.4218755 4.26618335,5 4.80357239,5 L12.1964383,5 C12.6333808,5 13.0000107,5.36160757 13.0000107,5.80357239 Z" id="" fill="#FFFFFF"></path>
                </g>
            </g>
        </g>
    </g>
</svg>

<svg width="17" height="17" xmlns="http://www.w3.org/2000/svg"><g fill="none" fill-rule="evenodd"><circle fill="#EFEFEF" cx="8.5" cy="8.5" r="8.5"/><path d="M13 7.28v3.988a.806.806 0 0 1-.804.803H4.804A.806.806 0 0 1 4 11.268V7.28c.15.166.321.312.507.437.834.568 1.678 1.135 2.496 1.733.422.311.945.693 1.492.693h.01c.547 0 1.07-.382 1.492-.693a96.195 96.195 0 0 1 2.5-1.733c.182-.125.352-.271.503-.437zm0-1.476c0 .562-.417 1.07-.859 1.376-.783.542-1.572 1.085-2.35 1.632-.327.226-.88.688-1.286.688h-.01c-.407 0-.96-.462-1.286-.688-.778-.547-1.567-1.09-2.345-1.632C4.507 6.939 4 6.37 4 5.914 4 5.422 4.266 5 4.804 5h7.392a.81.81 0 0 1 .804.804z" fill="#FFF"/></g></svg>
